dist/svgs/facebook.svg

<?xml version="1.0" encoding="UTF-8" standalone="no"?><svg   xmlns:svg="http://www.w3.org/2000/svg"   xmlns="http://www.w3.org/2000/svg"   version="1.1"   width="512"   height="512"   viewBox="0 0 512 512">  <path     d="M339 77Q324 77 308 87.5T292 114V183H372V267H292V512H203V267H124V183H203V92Q203 71 211.5 54T232.5 25T260.5 6.5T291 0H380V77H339V77z"     id="facebook" /></svg>

<svg xmlns="http://www.w3.org/2000/svg" viewBox="0 0 512 512"><path d="M339 77q-15 0-31 10.5T292 114v69h80v84h-80v245h-89V267h-79v-84h79V92q0-21 8.5-38t21-29 28-18.5T291 0h89v77h-41z"/></svg>
